X: 1
M: 6/8
K: D
L: 1/8 
DDD EDE | F3 F3 | FFF GFG | A6 | BBB dcB | A6 |
w:a lin-da ma-çã rei-ne-ta a-pa-nha-da no po-mar to-dos a queri-am co-mer
^GGG GFG | A5 A | G2 G FGF | E3 E2 A | G2 G FGF | E6
w: to-dos a queri-am pro-var mas um di-a q'ar-re-li-a de-sa-pare-ceu a ma-çã
DDD EDE | F3 G2 G | F2 F EDE | D6 |]
w:o Pe-dro diz não fui eu foi tal-vez a mi-nha ir-mã
</abc>
<abc>
